X:178
T:Joys of Quebec
R:reel
M:C|
K:A
ee| "A"eccc c2ee| eccc c2ee| fAeA dAcA| "E7"dBBB B2dd|
"E7"dBBB B2dd| dBBc B2(3Bcd| |1 "E7"e2e2 g2g2| "A"fe^df e2 :|2"E7"e2e2 fefg| "A"a6 |]
|:(3ABc| "A"[A4e4] "D"[A4f4]| "A"[e3A3][fA] [A2e2]AB|"A"[c4e4] "D"[d4f4]| "A"[c3e3]d [c2e2]Ac|
"E"cBA2 G2A2| "E7"B3c B2Bc|1 d2e2 gfeg| "B7"fe^df "E"e2 :|2 "E7"d2e2 fefg| "A"afec A2 |]
